X:1
T:What Shall It Profit?
T:John Bunyan Herbert
T:What Shall It Profit?
T:Public Domain
T:Public Domain
C:John Bunyan Herbert
Z:Public Domain
%%score ( 1 2 ) ( 3 4 )
L:1/8
M:6/8
K:Bb
V:1 treble 
V:2 treble 
V:3 bass 
V:4 bass 
V:1
 [DF] | [Dd]2 [DA] [Dc]2 [DB] | [DF]3 [DB]2 [Fd] | [^Fd]2 [FA] [FB]2 [FA] | G3- G2 [DG] | %5
w: 1.~Not|all earth’s gold and|sil- ver Can|make a sin- ner|whole; * What|
w: 2.~The|heap- ing up of|rich- es To|ma- ny seems life’s|goal; * But|
w: 3.~This|sol- emn quest- ion|an- swer: Is|world- ly gain thy|goal? * Can|
 [=Ec]2 [EG] [Ed]2 [Ec] | F2 [FG] [FA]2 [FB] | [=Ec]2 [EG] [Ec]2 [Ed] | [Ec]6 || %9
w: it pro- fit thee,|O man, If thou|lose thy soul? *||
w: the ea- ger rush|for wealth, For- got-|is the soul. What|shall|
w: ing rich- es be|com- pared To an|mor- tal soul? *||
"^Refrain" .[DF]2 z .[DF] z [DF] | [EG][DF][^C=E] [DF]3 | .[EG]2 z .[EG] z [EG] | %12
w: |||
w: it pro- fit|a man, What shall|it pro- fit|
w: |||
 [GB][FA][EG] [DF]3 | [EF]2 [EF] (FG)[EA] | ([DB]2 [Gd]) [_Af]2 [GB] | [Fd]2 [DB] [Ec]3 | %16
w: ||||
w: a man, If He|gain the whole * world,|lose * his own|soul? * *|
w: ||||
 [DB]3- [DB]2 |] %17
w: |
w: |
w: |
V:2
 x | x6 | x6 | x6 | G3- G2 x | x6 | F2 x4 | x6 | x6 || x6 | x6 | x6 | x6 | x3 E2 x | x6 | x6 | %16
w: ||||shall *||should’st||||||||||
w: ||||in *||ten|||||||And|||
w: ||||fleet- *||im-||||||||||
 x5 |] %17
w: |
w: |
w: |
V:3
 [B,,B,] | [B,,F,]2 [B,,F,] [B,,F,]2 [B,,F,] | [B,,B,]3 [B,,B,]2 [B,,B,] | %3
 [D,A,]2 [D,D] [D,D]2 [D,C] | [G,B,]3- [G,B,]2 [G,B,] | [C,G,]2 [C,G,] [C,G,]2 [C,G,] | %6
 [F,A,]2 [F,B,] [F,C]2 [D,B,] | [C,G,]2 [C,C] [C,B,]2 [C,B,] | [F,A,]6 || %9
 .[B,,B,]2 z .[B,,B,] z [B,,B,] | [B,,B,][B,,B,][B,,B,] [B,,B,]3 | .[E,B,]2 z .[E,B,] z [E,B,] | %12
 [E,B,][E,B,][E,B,] [B,,B,]3 | [F,A,]2 [F,A,] (A,B,)[F,C] | [G,B,]3 [D,B,]2 [E,B,] | %15
 [F,B,]2 [F,B,] [F,A,]3 | [B,,F,]3- [B,,F,]2 |] %17
V:4
 x | x6 | x6 | x6 | x6 | x6 | x6 | x6 | x6 || x6 | x6 | x6 | x6 | x3 F,2 x | x6 | x6 | x5 |] %17

